X:607
T: SCHLAF MEIN KINDELEIN
N: E1942
O: Europa, Mitteleuropa, Deutschland
R: geistlich, Fest - Lied, Weihnachten
M: 6/8
L: 1/16
K: F
 | c2B2c2A3GF2 | B2c2A2G3FF2
A2=B2c2B2G2c2 | c4=B2c6
c2_B2c2A3GF2 | B2c2A2G3FF2
A2=B2c2B2G2c2 | c4=B2c6
c2d2e2f2f2c2 | B3cBAG4
c2 | F2G2A2B2c2A2 | G3FE2F4z2
c2d2e2f2f2c2 | B3cBAG4
c2 | F2G2A2B2c2A2 | G3FE2F4z2

